X: 289
T:Rhynie
S:101 Scottish Songs
M:C
L:1/8
Q:1/4=140
K:C
c2|e3d c2G2|A2c2 A2G2|e3 d c2G2|Ac3  d3
 c|e3d c2c2|c2c2 A2G2|c3 G G2G2|E2G2 A4||
   G3C C2C2|E2D2 EA3 |G2C2 C2C2|E2G2 c2|]

The Skye Boat Song is a confusing example.  The tune is pentatonic, but
the tonal centre of the chorus is not the final note: it's really centred
on G, and some singers end it that way.  But the middle section goes into
the relative minor with no ambiguity at all.  Its origins are uncertain,
and there seems to be no verifiable Scottish source for it before it was
published in England in 1884, but it is at least Scottish by adoption.

